z_dist/img/icons/crypto/Holo-HOT.svg

<svg width="64" height="64" viewBox="0 0 64 64" fill="none" xmlns="http://www.w3.org/2000/svg">
<rect y="0.000244141" width="64" height="64" rx="4" fill="#007F88"/>
<path d="M11.7833 16.5676C11.1372 16.6184 10.6399 16.72 10.6679 16.7963C10.9256 17.4097 12.519 21.0213 12.5408 21.043C12.5626 21.0648 12.9328 21.0902 13.3684 21.1084C15.2994 21.181 16.8275 21.5585 18.4791 22.3752C19.666 22.9596 20.5444 23.5875 21.4591 24.4986C22.8057 25.8416 23.6841 27.3334 24.1995 29.1591C24.2576 29.3697 24.3048 29.5584 24.3048 29.5875C24.3048 29.6274 24.0108 29.6346 22.7113 29.6346C21.8329 29.6346 21.078 29.6492 21.0308 29.6673C20.9618 29.6927 20.7803 30.0847 20.0253 31.8161C19.5172 32.9813 19.0961 33.9613 19.0889 33.994C19.0635 34.0883 19.3684 34.1718 20.1306 34.2843C20.2867 34.3097 21.2232 34.3352 22.3302 34.3497L24.2576 34.3715L24.1415 34.7707C22.842 39.1772 18.8094 42.2589 13.8693 42.6291C13.5898 42.6473 13.2232 42.6654 13.0526 42.6654H12.7441L11.7931 44.8541C10.9764 46.7235 10.8494 47.0429 10.9038 47.061C11.1506 47.1518 11.7023 47.1844 12.98 47.1844C14.6134 47.1844 15.4083 47.1118 16.7549 46.836C22.254 45.7071 26.8238 42.2081 28.8928 37.533C29.2921 36.6328 29.7603 35.1518 29.8438 34.5312L29.8692 34.3533H33.9962L34.0107 34.4332C34.3084 35.8923 34.6314 36.876 35.1904 38.0375C36.871 41.5366 40.0216 44.3932 43.9235 45.9612C46.293 46.9102 48.8311 47.3659 51.3827 47.3006C52.4498 47.2679 53.2992 47.1481 53.2556 47.0356C53.2193 46.9412 51.4117 42.7924 51.4008 42.7816C51.3899 42.7707 51.0161 42.7562 50.5623 42.738C49.2883 42.6872 48.33 42.5384 47.2484 42.2298C45.5823 41.7507 43.9344 40.8832 42.6713 39.8233C41.0815 38.4839 39.9308 36.8179 39.321 34.9704C39.2521 34.7598 39.1831 34.5384 39.1722 34.4731L39.1468 34.3569L40.7003 34.346C41.5533 34.3388 42.2793 34.3206 42.3083 34.3061C42.3555 34.2807 44.2139 30.0666 44.2139 29.9831C44.2139 29.9287 43.7457 29.7907 43.321 29.7218C43.0089 29.6709 42.6132 29.6564 41.0343 29.6455L39.1214 29.6274L39.194 29.3697C40.2539 25.6165 43.5061 22.6365 47.6985 21.5802C48.6241 21.3479 49.5242 21.2282 50.693 21.181C51.3899 21.1519 51.477 21.1411 51.5206 21.083C51.5496 21.043 51.9779 20.0812 52.4716 18.9451C53.0778 17.5549 53.3572 16.8688 53.3318 16.8507C53.252 16.8071 52.7438 16.7164 52.3445 16.6765C51.7638 16.6148 50.0687 16.6257 49.321 16.691C45.0451 17.0721 41.1903 18.7962 38.3011 21.6129C36.537 23.3334 35.2993 25.2644 34.537 27.4931C34.341 28.0557 34.1051 28.9414 34.0325 29.3697L33.9889 29.6346H29.932L29.9175 29.5512C29.9066 29.5076 29.8667 29.3007 29.8231 29.0902C29.2242 26.1138 27.5327 23.2209 25.1444 21.0902C22.4257 18.6619 19.0355 17.1411 15.3041 16.679C14.1825 16.5422 12.7368 16.495 11.7833 16.5676Z" fill="white"/>
</svg>

<svg width="64" height="64" fill="none" xmlns="http://www.w3.org/2000/svg"><rect width="64" height="64" rx="4" fill="#007F88"/><path d="M11.783 16.568c-.646.05-1.143.152-1.115.228.258.614 1.851 4.225 1.873 4.247.022.022.392.047.827.065 1.931.073 3.46.45 5.111 1.267a10.605 10.605 0 012.98 2.124c1.347 1.343 2.225 2.834 2.74 4.66.059.21.106.4.106.428 0 .04-.294.048-1.594.048-.878 0-1.633.014-1.68.032-.07.026-.25.418-1.006 2.15a117.15 117.15 0 00-.936 2.177c-.025.094.28.178 1.042.29.156.026 1.092.051 2.2.066l1.927.021-.116.4c-1.3 4.406-5.333 7.488-10.273 7.858-.28.018-.646.036-.816.036h-.309l-.95 2.19c-.818 1.869-.945 2.188-.89 2.206.247.09.798.123 2.076.123 1.633 0 2.428-.072 3.775-.348 5.499-1.129 10.069-4.628 12.138-9.303.4-.9.867-2.381.95-3.002l.026-.178h4.127l.015.08c.297 1.46.62 2.443 1.18 3.605 1.68 3.499 4.83 6.355 8.732 7.923a18.77 18.77 0 007.46 1.34c1.067-.033 1.916-.153 1.873-.265a708.564 708.564 0 00-1.855-4.254c-.011-.011-.385-.026-.839-.044-1.274-.05-2.232-.2-3.314-.508-1.666-.48-3.314-1.347-4.577-2.407-1.59-1.34-2.74-3.005-3.35-4.853a6.13 6.13 0 01-.149-.497l-.025-.116 1.553-.011c.853-.007 1.58-.025 1.608-.04.047-.025 1.906-4.24 1.906-4.323 0-.054-.468-.192-.893-.261-.312-.051-.708-.066-2.287-.077l-1.913-.018.073-.257c1.06-3.754 4.312-6.733 8.505-7.79.925-.232 1.825-.352 2.994-.399.697-.03.784-.04.828-.098.029-.04.457-1.002.95-2.138.607-1.39.886-2.076.86-2.094-.079-.044-.587-.135-.987-.174-.58-.062-2.275-.051-3.023.014-4.276.381-8.13 2.105-11.02 4.922-1.764 1.72-3.002 3.651-3.764 5.88-.196.563-.432 1.448-.505 1.877l-.043.265h-4.057l-.014-.084c-.011-.043-.051-.25-.095-.46-.599-2.977-2.29-5.87-4.679-8-2.718-2.43-6.108-3.95-9.84-4.412-1.122-.137-2.567-.184-3.52-.111z" fill="#fff"/></svg>
